static/images/pieces/shinobi/cburnett/wB.svg

<svg height="45" width="45" xmlns="http://www.w3.org/2000/svg"><g fill="none" stroke="#000" stroke-linecap="round"><g fill-rule="evenodd" stroke-linejoin="round" stroke-width="1.5"><g fill="#fff" stroke-linecap="butt"><path d="m9 36c3.39-.97 10.11.43 13.5-2 3.39 2.43 10.11 1.03 13.5 2 0 0 1.65.54 3 2-.68.97-1.65.99-3 .5-3.39-.97-10.11.46-13.5-1-3.39 1.46-10.11.03-13.5 1-1.354.49-2.323.47-3-.5 1.354-1.94 3-2 3-2z" fill="#fae4ed"/><path d="m15 32c2.5 2.5 12.5 2.5 15 0 .5-1.5 0-2 0-2 0-2.5-2.5-4-2.5-4 5.5-1.5 6-11.5-5-15.5-11 4-10.5 14-5 15.5 0 0-2.5 1.5-2.5 4 0 0-.5.5 0 2z" fill="#fae4ed"/><path d="m25 8c0 .7020111.33308 3.346987-.125467 3.068746-.798834-.484723-1.666747-.562731-2.398048-.568846-.823007-.0069-1.664938.339247-2.325227.614276-.405236.168793-.151258-2.5553469-.151258-3.114176 0-3.3333319 5-3.3333319 5 0z" fill="#000"/></g><path d="m17.5 26h10m-12.5 4h15" stroke-linejoin="miter"/></g><path d="m19.771123 16.133428 5.457751 5.457752m0-5.457752-5.457751 5.457752m2.728875-7.568083v9.678412m-4.839206-4.839206h9.678412m-4.875591-4.038735a4.0387359 4.0387359 0 1 0 .07277 0" stroke-width="1.2"/></g></svg>

<?xml version="1.0" encoding="UTF-8" standalone="no"?>
<svg
   xmlns:dc="http://purl.org/dc/elements/1.1/"
   xmlns:cc="http://creativecommons.org/ns#"
   xmlns:rdf="http://www.w3.org/1999/02/22-rdf-syntax-ns#"
   xmlns:svg="http://www.w3.org/2000/svg"
   xmlns="http://www.w3.org/2000/svg"
   xmlns:sodipodi="http://sodipodi.sourceforge.net/DTD/sodipodi-0.dtd"
   xmlns:inkscape="http://www.inkscape.org/namespaces/inkscape"
   width="45"
   height="45"
   version="1.1"
   id="svg3224"
   sodipodi:docname="wB.svg"
   inkscape:version="1.0.1 (3bc2e813f5, 2020-09-07)">
  <metadata
     id="metadata3230">
    <rdf:RDF>
      <cc:Work
         rdf:about="">
        <dc:format>image/svg+xml</dc:format>
        <dc:type
           rdf:resource="http://purl.org/dc/dcmitype/StillImage" />
        <dc:title></dc:title>
      </cc:Work>
    </rdf:RDF>
  </metadata>
  <defs
     id="defs3228" />
  <sodipodi:namedview
     pagecolor="#ffffff"
     bordercolor="#666666"
     borderopacity="1"
     objecttolerance="10"
     gridtolerance="10"
     guidetolerance="10"
     inkscape:pageopacity="0"
     inkscape:pageshadow="2"
     inkscape:window-width="1918"
     inkscape:window-height="2037"
     id="namedview3226"
     showgrid="false"
     inkscape:zoom="11.2"
     inkscape:cx="5.6715643"
     inkscape:cy="48.267885"
     inkscape:window-x="1909"
     inkscape:window-y="0"
     inkscape:window-maximized="0"
     inkscape:current-layer="svg3224" />
  <g
     fill="none"
     fill-rule="evenodd"
     stroke="#000000"
     stroke-width="1.5"
     stroke-linecap="round"
     stroke-linejoin="round"
     id="g3222">
    <g
       fill="#ffffff"
       stroke-linecap="butt"
       id="g3218">
      <path
         d="m 9,36 c 3.39,-0.97 10.11,0.43 13.5,-2 3.39,2.43 10.11,1.03 13.5,2 0,0 1.65,0.54 3,2 -0.68,0.97 -1.65,0.99 -3,0.5 -3.39,-0.97 -10.11,0.46 -13.5,-1 C 19.11,38.96 12.39,37.53 9,38.5 7.646,38.99 6.677,38.97 6,38 7.354,36.06 9,36 9,36 Z"
         id="path3212"
         style="fill:#fae4ed;fill-opacity:1" />
      <path
         d="m 15,32 c 2.5,2.5 12.5,2.5 15,0 0.5,-1.5 0,-2 0,-2 0,-2.5 -2.5,-4 -2.5,-4 5.5,-1.5 6,-11.5 -5,-15.5 -11,4 -10.5,14 -5,15.5 0,0 -2.5,1.5 -2.5,4 0,0 -0.5,0.5 0,2 z"
         id="path3214"
         style="fill:#fae4ed;fill-opacity:1" />
      <path
         d="m 25,8 c 0,0.7020111 0.33308,3.346987 -0.125467,3.068746 C 24.075699,10.584023 23.207786,10.506015 22.476485,10.4999 21.653478,10.493 20.811547,10.839147 20.151258,11.114176 19.746022,11.282969 20,8.5588291 20,8 20,4.6666681 25,4.6666681 25,8 Z"
         id="path3216"
         style="fill:#000000"
         sodipodi:nodetypes="ssssss" />
    </g>
    <path
       d="m 17.5,26 h 10 M 15,30 h 15"
       stroke-linejoin="miter"
       id="path3220"
       sodipodi:nodetypes="cccc" />
  </g>
  <path
     stroke="#000000"
     stroke-width="1.2007"
     stroke-linecap="round"
     fill="none"
     d="m 19.771123,16.133428 5.457751,5.457752 m 0,-5.457752 -5.457751,5.457752 m 2.728875,-7.568083 v 9.678412 m -4.839206,-4.839206 h 9.678412 m -4.875591,-4.038735 a 4.0387359,4.0387359 0 1 0 0.07277,0"
     id="path915"
     style="stroke:#000000;stroke-width:1.2;stroke-miterlimit:4;stroke-dasharray:none" />
</svg>
